Hatter-kde/devices/16/network-modem.svg

<svg xmlns="http://www.w3.org/2000/svg" viewBox="0 0 16 16">
  <defs id="defs3051">
    <style type="text/css" id="current-color-scheme">
      .ColorScheme-Text {
        color:#363636;
      }
      </style>
  </defs>
 <path style="fill:currentColor" class="ColorScheme-Text" d="M 8,0.5 C 3.8773135,0.5 0.5,4.0323269 0.5,8.3442387 0.5,11.527838 2.3258175,14.273116 4.9065126,15.5 L 5.2706582,14.659546 C 2.9987751,13.579474 1.3823529,11.158725 1.3823529,8.3442387 1.3823529,4.5356631 4.358561,1.4228516 8,1.4228516 c 3.641439,0 6.617647,3.1128115 6.617647,6.9213871 0,2.7261143 -1.533644,5.1055493 -3.723739,6.2292483 l 0.388654,0.827636 C 13.76859,14.125587 15.5,11.431654 15.5,8.3442387 15.5,4.0323269 12.122687,0.5 8,0.5 Z m 0,2.3071289 c -2.927216,0 -5.2941176,2.4755387 -5.2941176,5.5371098 0,2.2608173 1.2995715,4.1778093 3.1285014,5.0335683 L 6.195028,12.537354 C 4.6712672,11.824382 3.5882353,10.235942 3.5882353,8.3442387 3.5882353,5.7768352 5.5452654,3.7299805 8,3.7299805 c 2.454734,0 4.411765,2.0468547 4.411765,4.6142582 0,1.8051483 -1.004849,3.3983123 -2.4877462,4.1528313 l 0.3869062,0.829468 C 12.092491,12.42005 13.294118,10.507055 13.294118,8.3442387 13.294118,5.2826676 10.927216,2.8071289 8,2.8071289 Z m 0,2.3071289 c -1.6963974,0 -3.0882353,1.455721 -3.0882353,3.229981 0,1.32573 0.7224514,2.4724442 1.8119748,2.9608152 L 7.0703781,10.457276 C 6.3070989,10.115142 5.7941176,9.3254638 5.7941176,8.3442387 5.7941176,7.073315 6.7848504,6.0371094 8,6.0371094 c 1.2151498,0 2.205883,1.0362056 2.205883,2.3071294 0,0.9279084 -0.5115005,1.6883872 -1.2570032,2.0782462 l 0.3956585,0.825806 C 10.363609,10.715368 11.088235,9.6310072 11.088235,8.3442387 11.088235,6.5699788 9.6963975,5.1142578 8,5.1142578 Z M 8,7.4213862 A 0.88228699,0.92278258 0 0 0 7.1176471,8.3442387 0.88228699,0.92278258 0 0 0 8,9.2670894 0.88228699,0.92278258 0 0 0 8.8823529,8.3442387 0.88228699,0.92278258 0 0 0 8,7.4213862 Z"/>
</svg>

<?xml version="1.0" encoding="UTF-8"?>
<svg viewBox="0 0 16 16" xmlns="http://www.w3.org/2000/svg">
 <defs id="defs3051">
  <style id="current-color-scheme" type="text/css">.ColorScheme-Text {
        color:#363636;
      }</style>
 </defs>
 <path class="ColorScheme-Text" d="m8 0.5c-4.1227 0-7.5 3.5323-7.5 7.8442 0 3.1836 1.8258 5.9289 4.4065 7.1558l0.36415-0.84045c-2.2719-1.0801-3.8883-3.5008-3.8883-6.3153 0-3.8086 2.9762-6.9214 6.6176-6.9214s6.6176 3.1128 6.6176 6.9214c0 2.7261-1.5336 5.1055-3.7237 6.2292l0.38865 0.82764c2.486-1.2755 4.2174-3.9695 4.2174-7.0569 0-4.3119-3.3773-7.8442-7.5-7.8442zm0 2.3071c-2.9272 0-5.2941 2.4755-5.2941 5.5371 0 2.2608 1.2996 4.1778 3.1285 5.0336l0.36064-0.84045c-1.5238-0.71297-2.6068-2.3014-2.6068-4.1931 0-2.5674 1.957-4.6143 4.4118-4.6143 2.4547 0 4.4118 2.0469 4.4118 4.6143 0 1.8051-1.0048 3.3983-2.4877 4.1528l0.38691 0.82947c1.7816-0.90649 2.9832-2.8195 2.9832-4.9823 0-3.0616-2.3669-5.5371-5.2941-5.5371zm0 2.3071c-1.6964 0-3.0882 1.4557-3.0882 3.23 0 1.3257 0.72245 2.4724 1.812 2.9608l0.34664-0.84778c-0.76328-0.34213-1.2763-1.1318-1.2763-2.113 0-1.2709 0.99073-2.3071 2.2059-2.3071 1.2151 0 2.2059 1.0362 2.2059 2.3071 0 0.92791-0.5115 1.6884-1.257 2.0782l0.39566 0.82581c1.0191-0.53292 1.7437-1.6173 1.7437-2.9041 0-1.7743-1.3918-3.23-3.0882-3.23zm0 2.3071a0.88229 0.92278 0 0 0-0.88235 0.92285 0.88229 0.92278 0 0 0 0.88235 0.92285 0.88229 0.92278 0 0 0 0.88235-0.92285 0.88229 0.92278 0 0 0-0.88235-0.92285z" fill="currentColor"/>
</svg>
